assets/1. 1-F/Antenna bars/Color/Antenna.Bars-color.svg

<svg width="100%" height="100%" viewBox="0 0 32 32" fill="none" xmlns="http://www.w3.org/2000/svg">
<g filter="url(#filter0_ii_18590_1624)">
<rect x="2.50034" y="1.6875" width="27.875" height="27.875" rx="3.6" fill="url(#paint0_linear_18590_1624)"/>
<rect x="2.50034" y="1.6875" width="27.875" height="27.875" rx="3.6" fill="url(#paint1_radial_18590_1624)"/>
</g>
<g filter="url(#filter1_f_18590_1624)">
<path d="M28.6878 4.1875V27.0625" stroke="url(#paint2_linear_18590_1624)" stroke-width="1.5" stroke-linecap="round"/>
</g>
<g filter="url(#filter2_f_18590_1624)">
<path d="M5.9642 3.5H27.7455" stroke="url(#paint3_linear_18590_1624)" stroke-width="1.5" stroke-linecap="round"/>
</g>
<g filter="url(#filter3_f_18590_1624)">
<path d="M24.3043 26.625H26.5543C27.0443 26.625 27.4343 26.235 27.4343 25.755V5.505C27.4343 5.015 27.0443 4.625 26.5643 4.625H24.3143C23.8243 4.625 23.4343 5.015 23.4343 5.505V25.745C23.4343 26.235 23.8243 26.625 24.3043 26.625Z" fill="#579FFF"/>
<path d="M20.5543 26.625H18.3043C17.8243 26.625 17.4343 26.235 17.4343 25.745V9.505C17.4343 9.015 17.8243 8.625 18.3143 8.625H20.5643C21.0443 8.625 21.4343 9.015 21.4343 9.505V25.755C21.4343 26.235 21.0443 26.625 20.5543 26.625Z" fill="#579FFF"/>
<path d="M12.3143 26.625H14.5543C15.0443 26.625 15.4343 26.235 15.4443 25.755V14.505C15.4443 14.015 15.0443 13.625 14.5643 13.625H12.3143C11.8243 13.625 11.4343 14.015 11.4343 14.505V25.745C11.4343 26.235 11.8243 26.625 12.3143 26.625Z" fill="#579FFF"/>
<path d="M6.3143 26.625H8.5543C9.0443 26.625 9.4343 26.235 9.4343 25.755V20.505C9.4343 20.015 9.0443 19.625 8.5643 19.625H6.3143C5.8243 19.625 5.4343 20.015 5.4343 20.495V25.745C5.4343 26.235 5.8243 26.625 6.3143 26.625Z" fill="#579FFF"/>
</g>
<g filter="url(#filter4_ii_18590_1624)">
<path d="M24.3043 26.625H26.5543C27.0443 26.625 27.4343 26.235 27.4343 25.755V5.505C27.4343 5.015 27.0443 4.625 26.5643 4.625H24.3143C23.8243 4.625 23.4343 5.015 23.4343 5.505V25.745C23.4343 26.235 23.8243 26.625 24.3043 26.625Z" fill="#FCF2FF"/>
<path d="M20.5543 26.625H18.3043C17.8243 26.625 17.4343 26.235 17.4343 25.745V9.505C17.4343 9.015 17.8243 8.625 18.3143 8.625H20.5643C21.0443 8.625 21.4343 9.015 21.4343 9.505V25.755C21.4343 26.235 21.0443 26.625 20.5543 26.625Z" fill="#FCF2FF"/>
<path d="M12.3143 26.625H14.5543C15.0443 26.625 15.4343 26.235 15.4443 25.755V14.505C15.4443 14.015 15.0443 13.625 14.5643 13.625H12.3143C11.8243 13.625 11.4343 14.015 11.4343 14.505V25.745C11.4343 26.235 11.8243 26.625 12.3143 26.625Z" fill="#FCF2FF"/>
<path d="M6.3143 26.625H8.5543C9.0443 26.625 9.4343 26.235 9.4343 25.755V20.505C9.4343 20.015 9.0443 19.625 8.5643 19.625H6.3143C5.8243 19.625 5.4343 20.015 5.4343 20.495V25.745C5.4343 26.235 5.8243 26.625 6.3143 26.625Z" fill="#FCF2FF"/>
</g>
<defs>
<filter id="filter0_ii_18590_1624" x="2.50034" y="0.6875" width="28.875" height="28.875" filterUnits="userSpaceOnUse" color-interpolation-filters="sRGB">
<feFlood flood-opacity="0" result="BackgroundImageFix"/>
<feBlend mode="normal" in="SourceGraphic" in2="BackgroundImageFix" result="shape"/>
<feColorMatrix in="SourceAlpha" type="matrix" values="0 0 0 0 0 0 0 0 0 0 0 0 0 0 0 0 0 0 127 0" result="hardAlpha"/>
<feOffset dx="1" dy="-1"/>
<feGaussianBlur stdDeviation="1.5"/>
<feComposite in2="hardAlpha" operator="arithmetic" k2="-1" k3="1"/>
<feColorMatrix type="matrix" values="0 0 0 0 0.188235 0 0 0 0 0.470588 0 0 0 0 0.843137 0 0 0 1 0"/>
<feBlend mode="normal" in2="shape" result="effect1_innerShadow_18590_1624"/>
<feColorMatrix in="SourceAlpha" type="matrix" values="0 0 0 0 0 0 0 0 0 0 0 0 0 0 0 0 0 0 127 0" result="hardAlpha"/>
<feOffset dy="-1"/>
<feGaussianBlur stdDeviation="1.5"/>
<feComposite in2="hardAlpha" operator="arithmetic" k2="-1" k3="1"/>
<feColorMatrix type="matrix" values="0 0 0 0 0.27451 0 0 0 0 0.34902 0 0 0 0 0.8 0 0 0 1 0"/>
<feBlend mode="normal" in2="effect1_innerShadow_18590_1624" result="effect2_innerShadow_18590_1624"/>
</filter>
<filter id="filter1_f_18590_1624" x="25.9378" y="1.4375" width="5.5" height="28.375" filterUnits="userSpaceOnUse" color-interpolation-filters="sRGB">
<feFlood flood-opacity="0" result="BackgroundImageFix"/>
<feBlend mode="normal" in="SourceGraphic" in2="BackgroundImageFix" result="shape"/>
<feGaussianBlur stdDeviation="1" result="effect1_foregroundBlur_18590_1624"/>
</filter>
<filter id="filter2_f_18590_1624" x="3.2142" y="0.75" width="27.2812" height="5.5" filterUnits="userSpaceOnUse" color-interpolation-filters="sRGB">
<feFlood flood-opacity="0" result="BackgroundImageFix"/>
<feBlend mode="normal" in="SourceGraphic" in2="BackgroundImageFix" result="shape"/>
<feGaussianBlur stdDeviation="1" result="effect1_foregroundBlur_18590_1624"/>
</filter>
<filter id="filter3_f_18590_1624" x="4.4343" y="3.625" width="24" height="24" filterUnits="userSpaceOnUse" color-interpolation-filters="sRGB">
<feFlood flood-opacity="0" result="BackgroundImageFix"/>
<feBlend mode="normal" in="SourceGraphic" in2="BackgroundImageFix" result="shape"/>
<feGaussianBlur stdDeviation="0.5" result="effect1_foregroundBlur_18590_1624"/>
</filter>
<filter id="filter4_ii_18590_1624" x="4.4343" y="4.225" width="23.4" height="23.4" filterUnits="userSpaceOnUse" color-interpolation-filters="sRGB">
<feFlood flood-opacity="0" result="BackgroundImageFix"/>
<feBlend mode="normal" in="SourceGraphic" in2="BackgroundImageFix" result="shape"/>
<feColorMatrix in="SourceAlpha" type="matrix" values="0 0 0 0 0 0 0 0 0 0 0 0 0 0 0 0 0 0 127 0" result="hardAlpha"/>
<feOffset dx="-1" dy="1"/>
<feGaussianBlur stdDeviation="1"/>
<feComposite in2="hardAlpha" operator="arithmetic" k2="-1" k3="1"/>
<feColorMatrix type="matrix" values="0 0 0 0 0.866667 0 0 0 0 0.819608 0 0 0 0 0.941176 0 0 0 1 0"/>
<feBlend mode="normal" in2="shape" result="effect1_innerShadow_18590_1624"/>
<feColorMatrix in="SourceAlpha" type="matrix" values="0 0 0 0 0 0 0 0 0 0 0 0 0 0 0 0 0 0 127 0" result="hardAlpha"/>
<feOffset dx="0.4" dy="-0.4"/>
<feGaussianBlur stdDeviation="0.5"/>
<feComposite in2="hardAlpha" operator="arithmetic" k2="-1" k3="1"/>
<feColorMatrix type="matrix" values="0 0 0 0 1 0 0 0 0 0.988235 0 0 0 0 1 0 0 0 1 0"/>
<feBlend mode="normal" in2="effect1_innerShadow_18590_1624" result="effect2_innerShadow_18590_1624"/>
</filter>
<linearGradient id="paint0_linear_18590_1624" x1="16.4378" y1="5.26201" x2="16.4378" y2="38.5147" gradientUnits="userSpaceOnUse">
<stop stop-color="#5CB7FF"/>
<stop offset="1" stop-color="#4878DD"/>
</linearGradient>
<radialGradient id="paint1_radial_18590_1624" cx="0" cy="0" r="1" gradientUnits="userSpaceOnUse" gradientTransform="translate(28.1566 3.78125) rotate(136.771) scale(2.14444 2.50466)">
<stop stop-color="#7BD7FF"/>
<stop offset="1" stop-color="#7BD7FF" stop-opacity="0"/>
</radialGradient>
<linearGradient id="paint2_linear_18590_1624" x1="29.1878" y1="4.1875" x2="29.1878" y2="27.0625" gradientUnits="userSpaceOnUse">
<stop stop-color="#7FD9FF"/>
<stop offset="1" stop-color="#639DF4"/>
</linearGradient>
<linearGradient id="paint3_linear_18590_1624" x1="28.9017" y1="3.75002" x2="3.37045" y2="3.75002" gradientUnits="userSpaceOnUse">
<stop stop-color="#7DD8FF"/>
<stop offset="1" stop-color="#5DB6FF"/>
</linearGradient>
</defs>
</svg>

<svg width="100%" height="100%" viewBox="0 0 32 32" xmlns="http://www.w3.org/2000/svg"><g filter="url(#a)"><rect width="27.875" height="27.875" x="2.5" y="1.688" fill="url(#b)" rx="3.6"/><rect width="27.875" height="27.875" x="2.5" y="1.688" fill="url(#c)" rx="3.6"/></g><g filter="url(#d)"><path stroke="url(#e)" stroke-linecap="round" stroke-width="1.5" d="M28.688 4.188v22.875"/></g><g filter="url(#f)"><path stroke="url(#g)" stroke-linecap="round" stroke-width="1.5" d="M5.964 3.5h21.782"/></g><g fill="#579FFF" filter="url(#h)"><path d="M24.304 26.625h2.25c.49 0 .88-.39.88-.87V5.505c0-.49-.39-.88-.87-.88h-2.25c-.49 0-.88.39-.88.88v20.24c0 .49.39.88.87.88M20.554 26.625h-2.25c-.48 0-.87-.39-.87-.88V9.505c0-.49.39-.88.88-.88h2.25c.48 0 .87.39.87.88v16.25c0 .48-.39.87-.88.87M12.314 26.625h2.24c.49 0 .88-.39.89-.87v-11.25c0-.49-.4-.88-.88-.88h-2.25c-.49 0-.88.39-.88.88v11.24c0 .49.39.88.88.88M6.314 26.625h2.24c.49 0 .88-.39.88-.87v-5.25c0-.49-.39-.88-.87-.88h-2.25c-.49 0-.88.39-.88.87v5.25c0 .49.39.88.88.88"/></g><g fill="#FCF2FF" filter="url(#i)"><path d="M24.304 26.625h2.25c.49 0 .88-.39.88-.87V5.505c0-.49-.39-.88-.87-.88h-2.25c-.49 0-.88.39-.88.88v20.24c0 .49.39.88.87.88M20.554 26.625h-2.25c-.48 0-.87-.39-.87-.88V9.505c0-.49.39-.88.88-.88h2.25c.48 0 .87.39.87.88v16.25c0 .48-.39.87-.88.87M12.314 26.625h2.24c.49 0 .88-.39.89-.87v-11.25c0-.49-.4-.88-.88-.88h-2.25c-.49 0-.88.39-.88.88v11.24c0 .49.39.88.88.88M6.314 26.625h2.24c.49 0 .88-.39.88-.87v-5.25c0-.49-.39-.88-.87-.88h-2.25c-.49 0-.88.39-.88.87v5.25c0 .49.39.88.88.88"/></g><defs><filter id="a" width="28.875" height="28.875" x="2.5" y=".688" color-interpolation-filters="sRGB" filterUnits="userSpaceOnUse"><feFlood flood-opacity="0" result="BackgroundImageFix"/><feBlend in="SourceGraphic" in2="BackgroundImageFix" result="shape"/><feColorMatrix in="SourceAlpha" result="hardAlpha" values="0 0 0 0 0 0 0 0 0 0 0 0 0 0 0 0 0 0 127 0"/><feOffset dx="1" dy="-1"/><feGaussianBlur stdDeviation="1.5"/><feComposite in2="hardAlpha" k2="-1" k3="1" operator="arithmetic"/><feColorMatrix values="0 0 0 0 0.188235 0 0 0 0 0.470588 0 0 0 0 0.843137 0 0 0 1 0"/><feBlend in2="shape" result="effect1_innerShadow_18590_1624"/><feColorMatrix in="SourceAlpha" result="hardAlpha" values="0 0 0 0 0 0 0 0 0 0 0 0 0 0 0 0 0 0 127 0"/><feOffset dy="-1"/><feGaussianBlur stdDeviation="1.5"/><feComposite in2="hardAlpha" k2="-1" k3="1" operator="arithmetic"/><feColorMatrix values="0 0 0 0 0.27451 0 0 0 0 0.34902 0 0 0 0 0.8 0 0 0 1 0"/><feBlend in2="effect1_innerShadow_18590_1624" result="effect2_innerShadow_18590_1624"/></filter><filter id="d" width="5.5" height="28.375" x="25.938" y="1.438" color-interpolation-filters="sRGB" filterUnits="userSpaceOnUse"><feFlood flood-opacity="0" result="BackgroundImageFix"/><feBlend in="SourceGraphic" in2="BackgroundImageFix" result="shape"/><feGaussianBlur result="effect1_foregroundBlur_18590_1624" stdDeviation="1"/></filter><filter id="f" width="27.281" height="5.5" x="3.214" y=".75" color-interpolation-filters="sRGB" filterUnits="userSpaceOnUse"><feFlood flood-opacity="0" result="BackgroundImageFix"/><feBlend in="SourceGraphic" in2="BackgroundImageFix" result="shape"/><feGaussianBlur result="effect1_foregroundBlur_18590_1624" stdDeviation="1"/></filter><filter id="h" width="24" height="24" x="4.434" y="3.625" color-interpolation-filters="sRGB" filterUnits="userSpaceOnUse"><feFlood flood-opacity="0" result="BackgroundImageFix"/><feBlend in="SourceGraphic" in2="BackgroundImageFix" result="shape"/><feGaussianBlur result="effect1_foregroundBlur_18590_1624" stdDeviation=".5"/></filter><filter id="i" width="23.4" height="23.4" x="4.434" y="4.225" color-interpolation-filters="sRGB" filterUnits="userSpaceOnUse"><feFlood flood-opacity="0" result="BackgroundImageFix"/><feBlend in="SourceGraphic" in2="BackgroundImageFix" result="shape"/><feColorMatrix in="SourceAlpha" result="hardAlpha" values="0 0 0 0 0 0 0 0 0 0 0 0 0 0 0 0 0 0 127 0"/><feOffset dx="-1" dy="1"/><feGaussianBlur stdDeviation="1"/><feComposite in2="hardAlpha" k2="-1" k3="1" operator="arithmetic"/><feColorMatrix values="0 0 0 0 0.866667 0 0 0 0 0.819608 0 0 0 0 0.941176 0 0 0 1 0"/><feBlend in2="shape" result="effect1_innerShadow_18590_1624"/><feColorMatrix in="SourceAlpha" result="hardAlpha" values="0 0 0 0 0 0 0 0 0 0 0 0 0 0 0 0 0 0 127 0"/><feOffset dx=".4" dy="-.4"/><feGaussianBlur stdDeviation=".5"/><feComposite in2="hardAlpha" k2="-1" k3="1" operator="arithmetic"/><feColorMatrix values="0 0 0 0 1 0 0 0 0 0.988235 0 0 0 0 1 0 0 0 1 0"/><feBlend in2="effect1_innerShadow_18590_1624" result="effect2_innerShadow_18590_1624"/></filter><linearGradient id="b" x1="16.438" x2="16.438" y1="5.262" y2="38.515" gradientUnits="userSpaceOnUse"><stop stop-color="#5CB7FF"/><stop offset="1" stop-color="#4878DD"/></linearGradient><linearGradient id="e" x1="29.188" x2="29.188" y1="4.188" y2="27.063" gradientUnits="userSpaceOnUse"><stop stop-color="#7FD9FF"/><stop offset="1" stop-color="#639DF4"/></linearGradient><linearGradient id="g" x1="28.902" x2="3.37" y1="3.75" y2="3.75" gradientUnits="userSpaceOnUse"><stop stop-color="#7DD8FF"/><stop offset="1" stop-color="#5DB6FF"/></linearGradient><radialGradient id="c" cx="0" cy="0" r="1" gradientTransform="matrix(-1.56249 1.46876 -1.71548 -1.82495 28.157 3.781)" gradientUnits="userSpaceOnUse"><stop stop-color="#7BD7FF"/><stop offset="1" stop-color="#7BD7FF" stop-opacity="0"/></radialGradient></defs></svg>
